X: 1
T: Dark Lowers the Night
C: PM John MacKay
R: retreat march
S: Handout for BSFC workshop 2020-1-3 with Natalie Haas
Z: 2020 John Chambers <jc:trillian.mit.edu>
M: 3/4
L: 1/8
K: Bm
dc |\
"Bm"B2 BA/B/ "A/C#"de | "D"f4 ga | "G"f2 e>d cB | "A"c4 d>c |\
"Bm"B2 BA/B/ "A"de | "D"f4 ga | "G"f2 "A"f>e dc |1 "G"B4 :| "Bm"B3 :|
|: A "A7"ag |\
"D"f2 f2 "A/E"gf/g/ | "D/F#"a4 ag | "G"f2 e>d cB | "A"c4 dc |\
"Bm"B2 BA/B/ "A"de | "D"f4 ga | "G"f2 "A"f>e dc |1 "Bm"B3 :|2 "Bm"B4 |]
